X: 16986
T: Head Her In For Bastavoe
R: reel
M: 4/4
K: Gmajor
|:gfed ed {A}B2|gfed ea a2|gfed ed {A}B2|dBAG EG G2:|
|:GEDE GA B2|dBGA BAA2|GEDE GA B2|dBGA BG G2:|

